X: 5
T:Maid of the Mill, Bucknell
M:6/8
L:1/8
A:Bucknell
P:A(AB)3A
K:G
P:A
|:GAB DED|GAB d3 |GAG D2A|G6:|
P:B
  B2A G2G|A2A BAG|A2A BdB|DAB G3|
  B2A G2G|A2A BAG|BdB D2B|G3  G3||
